img/element_bottender_logo.svg

<svg width="207" height="48" viewBox="0 0 207 48" fill="none" xmlns="http://www.w3.org/2000/svg">
<path fill-rule="evenodd" clip-rule="evenodd" d="M39.2523 18.4348C38.7471 15.9209 35.9537 3.12891 31.4554 2.34114C26.47 1.4668 24.4774 3.53925 24.4774 3.53925C24.4774 3.53925 23.3182 0.914389 18.331 0.0400457C13.8375 -0.747717 6.80938 10.3224 5.46829 12.5119C2.97045 12.3248 1.47162 12.3693 1.4136 12.693C1.4136 12.693 1.15312 14.0576 1.13317 14.174C0.988127 14.9929 10.1225 17.2788 21.5372 19.2805C32.9518 21.2816 42.5733 22.2401 42.719 21.4218C42.7274 21.3718 42.9982 19.9847 42.9982 19.9847C43.0574 19.6616 41.6637 19.1091 39.2523 18.4348ZM18.5578 22.8568C19.4335 22.8568 20.1436 23.5732 20.1436 24.4573C20.1436 25.3408 19.4335 26.0573 18.5578 26.0573C17.6821 26.0573 16.9719 25.3408 16.9719 24.4573C16.9719 23.5732 17.6821 22.8568 18.5578 22.8568ZM34.8547 24.4573C34.8547 23.5732 34.1446 22.8568 33.2682 22.8568C32.3925 22.8568 31.6824 23.5732 31.6824 24.4573C31.6824 25.3408 32.3925 26.0573 33.2682 26.0573C34.1446 26.0573 34.8547 25.3408 34.8547 24.4573ZM39.0652 23.3507C38.5382 23.3239 37.9496 23.283 37.3077 23.23C37.7235 24.7854 37.9332 26.3883 37.9326 27.9992C37.9326 38.0944 29.7991 46.3074 19.8023 46.3074C16.4178 46.3111 13.1005 45.3556 10.2273 43.5496L9.71118 43.2253L9.23977 43.6179C8.51695 44.2325 7.71798 44.7483 6.8622 45.1538C7.31064 44.3551 7.54695 43.4533 7.54755 42.5357C7.54695 42.243 7.52277 41.9515 7.47503 41.6637L7.4303 41.3863L7.23207 41.19C0.796786 34.9415 -0.169595 24.8896 4.95482 17.5077C4.33112 17.3376 3.76422 17.1699 3.26078 17.0199C-1.92044 24.9659 -0.834398 35.5001 5.85835 42.1973C5.8632 42.2506 5.88776 42.3039 5.91231 42.3572C5.93972 42.4167 5.96713 42.4762 5.96713 42.5357C5.96472 44.5569 4.24711 46.1946 2.43401 46.197V47.8872C4.85148 47.886 7.75847 46.9757 9.94446 45.2959C12.9657 47.0696 16.3526 48.003 19.8482 48C30.7673 48 39.6285 39.0279 39.6285 28.0011C39.6297 26.4353 39.4254 24.8744 39.0652 23.3507ZM198.848 15.7411H200.599C201.993 15.7411 202.501 16.539 202.501 18.2848V20.694C202.501 22.6494 201.707 23.4818 200.241 23.4818H198.848V15.7411ZM202.995 36.5814H207C206.697 36.1234 206.72 35.3986 206.746 34.5483C206.754 34.2933 206.763 34.0269 206.763 33.7531V29.9822C206.763 27.4331 206.137 25.5825 204.17 24.7793C205.922 23.976 206.763 22.335 206.763 19.8211V17.9008C206.763 14.1293 204.783 12.1685 200.706 12.1685H194.587V36.5814H198.848V27.0544H200.062C201.85 27.0544 202.501 27.6076 202.501 29.8768V33.718C202.501 35.3793 202.695 35.8475 202.885 36.3033C202.922 36.3934 202.959 36.4831 202.995 36.5814ZM189.108 15.7411H182.411V22.2909H187.281V25.8636H182.411V33.0088H189.108V36.5814H178.149V12.1685H189.108V15.7411ZM164.147 15.7411H166.359C167.611 15.7411 168.409 16.3991 168.409 18.1449V30.8545C168.409 32.6003 167.611 33.0088 166.359 33.0088H164.147V15.7411ZM160.494 12.1685V36.5814H166.431C170.365 36.5814 172.061 34.5909 172.061 30.68V18.32C172.061 14.4091 170.365 12.1685 166.431 12.1685H160.494ZM153.798 36.5814H149.937L145.275 19.0178V36.5814H141.622V12.1685H146.433L150.754 26.9091V12.1685H153.798V36.5814ZM135.534 15.7411H128.838V22.2909H134.317V25.8636H128.838V33.0088H135.534V36.5814H125.185V12.1685H135.534V15.7411ZM111.791 15.7411H107.53V12.1685H119.706V15.7411H115.444V36.5814H111.791V15.7411ZM95.9628 15.7411H91.7012V12.1685H103.877V15.7411H99.6155V36.5814H95.9628V15.7411ZM74.655 18.1449V30.8545C74.655 34.7653 76.8808 37 80.7429 37C84.6045 37 86.8309 34.7653 86.8309 30.8545V18.1449C86.8309 14.2347 84.6045 12 80.7429 12C76.8808 12 74.655 14.2347 74.655 18.1449ZM78.9166 31.0992V17.9008C78.9166 16.155 79.4913 15.4916 80.7429 15.4916C81.994 15.4916 82.5693 16.155 82.5693 17.9008V31.0992C82.5693 32.845 81.994 33.5084 80.7429 33.5084C79.4913 33.5084 78.9166 32.845 78.9166 31.0992ZM61.2616 15.7411H63.0344C64.4291 15.7411 64.9143 16.539 64.9143 18.2848V19.6466C64.9143 21.602 64.143 22.2909 62.677 22.2909H61.2616V15.7411ZM61.2616 25.8636H62.8913C64.6793 25.8636 65.5231 26.4203 65.5231 28.6901V30.82C65.5231 32.6355 64.7152 33.0088 63.3923 33.0088H61.2616V25.8636ZM69.1759 17.9008C69.1759 14.1293 67.2186 12.1685 63.1415 12.1685H57V36.5814H63.3923C67.3257 36.5814 69.1759 34.6957 69.1759 30.9248V28.9342C69.1759 26.3506 68.55 24.5 66.4399 23.6968C68.1921 22.8935 69.1759 21.2876 69.1759 18.7737V17.9008Z" fill="white"/>
</svg>

<svg width="207" height="48" viewBox="0 0 207 48" fill="none" xmlns="http://www.w3.org/2000/svg"><path fill-rule="evenodd" clip-rule="evenodd" d="M39.252 18.435c-.505-2.514-3.298-15.306-7.797-16.094-4.985-.874-6.978 1.198-6.978 1.198S23.318.914 18.331.04C13.838-.748 6.809 10.322 5.468 12.512c-2.498-.187-3.996-.143-4.054.181 0 0-.26 1.365-.28 1.481-.146.819 8.989 3.105 20.403 5.107 11.415 2 21.036 2.96 21.182 2.14.008-.05.28-1.436.28-1.436.058-.323-1.335-.876-3.747-1.55zm-20.694 4.422c.875 0 1.586.716 1.586 1.6 0 .884-.71 1.6-1.586 1.6a1.593 1.593 0 01-1.586-1.6c0-.884.71-1.6 1.586-1.6zm16.297 1.6c0-.884-.71-1.6-1.587-1.6-.876 0-1.586.716-1.586 1.6 0 .884.71 1.6 1.586 1.6.877 0 1.587-.716 1.587-1.6zm4.21-1.106a56.497 56.497 0 01-1.757-.121c.416 1.555.625 3.158.625 4.77 0 10.094-8.134 18.307-18.13 18.307a17.952 17.952 0 01-9.576-2.757l-.516-.325-.471.393a10.824 10.824 0 01-2.378 1.536 5.356 5.356 0 00.613-3.49l-.045-.278-.198-.196C.797 34.942-.17 24.89 4.955 17.508c-.624-.17-1.19-.338-1.694-.488C-1.92 24.966-.834 35.5 5.858 42.197c.005.054.03.107.054.16.028.06.055.12.055.179-.002 2.02-1.72 3.659-3.533 3.661v1.69c2.417-.001 5.324-.911 7.51-2.591A19.45 19.45 0 0019.848 48c10.92 0 19.78-8.972 19.78-19.999a20.172 20.172 0 00-.563-4.65zm159.783-7.61h1.751c1.394 0 1.902.798 1.902 2.544v2.409c0 1.955-.794 2.788-2.26 2.788h-1.393v-7.74zm4.147 20.84H207c-.303-.458-.28-1.182-.254-2.033.008-.255.017-.521.017-.795v-3.77c0-2.55-.626-4.4-2.593-5.204 1.752-.803 2.593-2.444 2.593-4.958v-1.92c0-3.772-1.98-5.732-6.057-5.732h-6.119V36.58h4.261v-9.527h1.214c1.788 0 2.439.554 2.439 2.823v3.841c0 1.661.194 2.13.384 2.585.037.09.074.18.11.278zm-13.887-20.84h-6.697v6.55h4.87v3.573h-4.87v7.145h6.697v3.572h-10.959V12.168h10.959v3.573zm-24.961 0h2.212c1.252 0 2.05.658 2.05 2.404v12.71c0 1.745-.798 2.154-2.05 2.154h-2.212V15.74zm-3.653-3.572V36.58h5.937c3.934 0 5.63-1.99 5.63-5.901V18.32c0-3.91-1.696-6.152-5.63-6.152h-5.937zm-6.696 24.412h-3.861l-4.662-17.563V36.58h-3.653V12.168h4.811l4.321 14.741V12.17h3.044v24.41zm-18.264-20.84h-6.696v6.55h5.479v3.573h-5.479v7.145h6.696v3.572h-10.349V12.168h10.349v3.573zm-23.743 0h-4.261V12.17h12.176v3.572h-4.262v20.84h-3.653v-20.84zm-15.828 0H91.7V12.17h12.176v3.572h-4.261v20.84h-3.653v-20.84zm-21.308 2.404v12.71c0 3.91 2.226 6.145 6.088 6.145s6.088-2.235 6.088-6.145v-12.71c0-3.91-2.227-6.145-6.088-6.145-3.862 0-6.088 2.235-6.088 6.145zm4.262 12.954V17.901c0-1.746.574-2.41 1.826-2.41 1.251 0 1.826.664 1.826 2.41v13.198c0 1.746-.575 2.41-1.826 2.41-1.252 0-1.826-.664-1.826-2.41zM61.262 15.741h1.772c1.395 0 1.88.798 1.88 2.544v1.362c0 1.955-.771 2.644-2.237 2.644h-1.415v-6.55zm0 10.123h1.63c1.787 0 2.631.556 2.631 2.826v2.13c0 1.816-.808 2.189-2.13 2.189h-2.131v-7.145zm7.914-7.963c0-3.772-1.957-5.732-6.035-5.732H57V36.58h6.392c3.934 0 5.784-1.885 5.784-5.656v-1.99c0-2.584-.626-4.435-2.736-5.238 1.752-.803 2.736-2.41 2.736-4.923V17.9z" fill="#fff"/></svg>
